assets/svgs/misc-grey/MiscGrey78.svg

<svg width="45" height="43" viewBox="0 0 45 43" fill="none" xmlns="http://www.w3.org/2000/svg">
<path fill-rule="evenodd" clip-rule="evenodd" d="M8.17003 18.93L22.786 20.11C23.565 20.18 24.165 20.83 24.165 21.61V34.95L39.997 5.33L8.17003 18.93ZM22.665 42.44C22.544 42.44 22.422 42.43 22.301 42.4C21.633 42.23 21.165 41.63 21.165 40.94V22.99L1.87703 21.44C1.19003 21.38 0.629026 20.86 0.518026 20.18C0.407026 19.5 0.774026 18.83 1.40903 18.56L42.742 0.900004C43.326 0.640004 44.007 0.790004 44.438 1.26C44.868 1.73 44.955 2.42 44.654 2.98L23.988 41.65C23.723 42.14 23.209 42.44 22.665 42.44Z" fill="#1A1919"/>
</svg>

<svg xmlns="http://www.w3.org/2000/svg" fill="none" viewBox="0 0 45 43"><path fill="#1A1919" fill-rule="evenodd" d="M8.17 18.93l14.616 1.18a1.51 1.51 0 011.379 1.5v13.34L39.997 5.33 8.17 18.93zm14.495 23.51c-.121 0-.243-.01-.364-.04a1.506 1.506 0 01-1.136-1.46V22.99L1.877 21.44a1.511 1.511 0 01-1.359-1.26c-.111-.68.256-1.35.891-1.62L42.742.9a1.483 1.483 0 011.696.36c.43.47.517 1.16.216 1.72L23.988 41.65a1.51 1.51 0 01-1.323.79z" clip-rule="evenodd"/></svg>
